X:1
T:Jack the Sailor (Jackie Monroe)
M:2/2
L:1/4
K:C
 z2 z G| c2 c c| e2 e e| g ge/2-d/2 c| e3 e| g ge/2-d/2 c| A2 G3/2 A/4A/4|\
 c A G A| E3G/2-E/2| C3/2 C/2 E G| A3 B| A3/2 A/2 G E| C3 z|
